icons/airpod-single.svg

<svg width="24" height="24" viewBox="0 0 24 24" fill="none" xmlns="http://www.w3.org/2000/svg">
<path fill-rule="evenodd" clip-rule="evenodd" d="M12 3.75C9.38579 3.75 7.25 5.88579 7.25 8.5C7.25 9.39627 7.50047 10.204 7.91709 10.9157C7.84989 11.2082 7.84993 11.4455 7.84998 11.6819L7.84998 11.7V11.7374L8.45371 17.7747C8.59267 19.1643 9.82098 20.25 11.2 20.25C12.579 20.25 13.8073 19.1643 13.9463 17.7747L14.4107 12.5729C15.7621 11.7749 16.75 10.2428 16.75 8.5C16.75 5.88579 14.6142 3.75 12 3.75ZM13.969 11.064C14.7223 10.4826 15.25 9.53899 15.25 8.5C15.25 6.71421 13.7858 5.25 12 5.25C10.2142 5.25 8.75 6.71421 8.75 8.5C8.75 9.22237 8.98795 9.87271 9.41032 10.464L9.34403 10.5114C9.89783 11.2719 10.845 11.75 11.9 11.75H11.9533L12.0061 11.7576C12.4906 11.8268 12.9175 11.6948 13.3141 11.4569L13.969 11.064ZM9.94626 17.6254L9.44204 12.5833C10.1537 13.0068 10.9857 13.2407 11.8478 13.2498C12.2031 13.2947 12.5366 13.2798 12.8467 13.2231L12.4534 17.6289C12.3905 18.2377 11.8198 18.75 11.2 18.75C10.579 18.75 10.0073 18.2358 9.94626 17.6254Z" fill="black"/>
</svg>

<svg xmlns="http://www.w3.org/2000/svg" fill="none" viewBox="0 0 24 24">
  <path fill="#000" fill-rule="evenodd" d="M12 3.75A4.762 4.762 0 0 0 7.25 8.5c0 .896.25 1.704.667 2.416-.067.292-.067.53-.067.766v.055l.604 6.038c.139 1.39 1.367 2.475 2.746 2.475s2.607-1.086 2.746-2.475l.465-5.202c1.351-.798 2.339-2.33 2.339-4.073A4.762 4.762 0 0 0 12 3.75Zm1.969 7.314c.753-.581 1.281-1.525 1.281-2.564A3.262 3.262 0 0 0 12 5.25 3.262 3.262 0 0 0 8.75 8.5c0 .722.238 1.373.66 1.964l-.066.047c.554.76 1.501 1.239 2.556 1.239h.053l.053.008c.485.069.912-.063 1.308-.301l.655-.393Zm-4.023 6.561-.504-5.042a4.808 4.808 0 0 0 2.406.667c.355.045.689.03.999-.027l-.394 4.406c-.063.609-.633 1.121-1.253 1.121-.621 0-1.193-.514-1.254-1.125Z" clip-rule="evenodd"/>
</svg>
